source/balance-two.svg

<svg width="24" height="24" viewBox="0 0 24 24" fill="none" xmlns="http://www.w3.org/2000/svg">
<path fill-rule="evenodd" clip-rule="evenodd" d="M5.00011 5.25C5.26356 5.25 5.50769 5.38822 5.64323 5.61413L8.64323 10.6141C8.85634 10.9693 8.74117 11.43 8.38599 11.6431C8.0308 11.8562 7.57011 11.7411 7.35699 11.3859L5.00011 7.45774L2.64323 11.3859C2.43012 11.7411 1.96943 11.8562 1.61424 11.6431C1.25906 11.43 1.14388 10.9693 1.35699 10.6141L4.35699 5.61413C4.49254 5.38822 4.73667 5.25 5.00011 5.25Z" fill="#1C1B1F"/>
<path fill-rule="evenodd" clip-rule="evenodd" d="M1.25 11C1.25 10.5858 1.58579 10.25 2 10.25H8C8.41421 10.25 8.75 10.5858 8.75 11C8.75 13.0711 7.07106 14.75 5 14.75C2.92893 14.75 1.25 13.0711 1.25 11ZM2.87803 11.75C3.18691 12.6239 4.02034 13.25 5 13.25C5.97966 13.25 6.81309 12.6239 7.12197 11.75H2.87803Z" fill="#1C1B1F"/>
<path fill-rule="evenodd" clip-rule="evenodd" d="M19.0001 5.25C19.2636 5.25 19.5077 5.38822 19.6432 5.61413L22.6432 10.6141C22.8563 10.9693 22.7412 11.43 22.386 11.6431C22.0308 11.8562 21.5701 11.7411 21.357 11.3859L19.0001 7.45774L16.6432 11.3859C16.4301 11.7411 15.9694 11.8562 15.6142 11.6431C15.2591 11.43 15.1439 10.9693 15.357 10.6141L18.357 5.61413C18.4925 5.38822 18.7367 5.25 19.0001 5.25Z" fill="#1C1B1F"/>
<path fill-rule="evenodd" clip-rule="evenodd" d="M15.25 11C15.25 10.5858 15.5858 10.25 16 10.25H22C22.4142 10.25 22.75 10.5858 22.75 11C22.75 13.0711 21.0711 14.75 19 14.75C16.9289 14.75 15.25 13.0711 15.25 11ZM16.878 11.75C17.1869 12.6239 18.0203 13.25 19 13.25C19.9797 13.25 20.8131 12.6239 21.122 11.75H16.878Z" fill="#1C1B1F"/>
<path fill-rule="evenodd" clip-rule="evenodd" d="M12 2.25C12.4142 2.25 12.75 2.58579 12.75 3V21C12.75 21.4142 12.4142 21.75 12 21.75C11.5858 21.75 11.25 21.4142 11.25 21V3C11.25 2.58579 11.5858 2.25 12 2.25Z" fill="#1C1B1F"/>
<path fill-rule="evenodd" clip-rule="evenodd" d="M4.25 6C4.25 5.58579 4.58579 5.25 5 5.25H19C19.4142 5.25 19.75 5.58579 19.75 6C19.75 6.41421 19.4142 6.75 19 6.75H5C4.58579 6.75 4.25 6.41421 4.25 6Z" fill="#1C1B1F"/>
<path fill-rule="evenodd" clip-rule="evenodd" d="M4.25 6C4.25 5.58579 4.58579 5.25 5 5.25H19C19.4142 5.25 19.75 5.58579 19.75 6C19.75 6.41421 19.4142 6.75 19 6.75H5C4.58579 6.75 4.25 6.41421 4.25 6Z" fill="#1C1B1F"/>
<path fill-rule="evenodd" clip-rule="evenodd" d="M4.25 21C4.25 20.5858 4.58579 20.25 5 20.25H19C19.4142 20.25 19.75 20.5858 19.75 21C19.75 21.4142 19.4142 21.75 19 21.75H5C4.58579 21.75 4.25 21.4142 4.25 21Z" fill="#1C1B1F"/>
</svg>

<svg xmlns="http://www.w3.org/2000/svg" width="24" height="24" fill="none" viewBox="0 0 24 24">
  <path fill="#1C1B1F" fill-rule="evenodd" d="M5 5.25a.75.75 0 0 1 .643.364l3 5a.75.75 0 0 1-1.286.772L5 7.458l-2.357 3.928a.75.75 0 1 1-1.286-.772l3-5A.75.75 0 0 1 5 5.25Z" clip-rule="evenodd"/>
  <path fill="#1C1B1F" fill-rule="evenodd" d="M1.25 11a.75.75 0 0 1 .75-.75h6a.75.75 0 0 1 .75.75 3.75 3.75 0 1 1-7.5 0Zm1.628.75a2.25 2.25 0 0 0 4.244 0H2.878ZM19 5.25a.75.75 0 0 1 .643.364l3 5a.75.75 0 1 1-1.286.772L19 7.458l-2.357 3.928a.75.75 0 1 1-1.286-.772l3-5A.75.75 0 0 1 19 5.25Z" clip-rule="evenodd"/>
  <path fill="#1C1B1F" fill-rule="evenodd" d="M15.25 11a.75.75 0 0 1 .75-.75h6a.75.75 0 0 1 .75.75 3.75 3.75 0 1 1-7.5 0Zm1.628.75a2.251 2.251 0 0 0 4.244 0h-4.244ZM12 2.25a.75.75 0 0 1 .75.75v18a.75.75 0 0 1-1.5 0V3a.75.75 0 0 1 .75-.75Z" clip-rule="evenodd"/>
  <path fill="#1C1B1F" fill-rule="evenodd" d="M4.25 6A.75.75 0 0 1 5 5.25h14a.75.75 0 0 1 0 1.5H5A.75.75 0 0 1 4.25 6Z" clip-rule="evenodd"/>
  <path fill="#1C1B1F" fill-rule="evenodd" d="M4.25 6A.75.75 0 0 1 5 5.25h14a.75.75 0 0 1 0 1.5H5A.75.75 0 0 1 4.25 6Zm0 15a.75.75 0 0 1 .75-.75h14a.75.75 0 0 1 0 1.5H5a.75.75 0 0 1-.75-.75Z" clip-rule="evenodd"/>
</svg>
